svg/u1f1f5.svg

<svg viewBox="0 0 128 128" xmlns="http://www.w3.org/2000/svg">
  <path d="m72.51 15.42h-37.86c-0.15 0-0.28 0.06-0.42 0.08h-6.47c-1.24 0-2.24 1-2.24 2.24v100.97c0 1.24 1 2.24 2.24 2.24h21.9c1.24 0 2.24-1 2.24-2.24v-32.08h20.61c19.83 0 35.96-15.97 35.96-35.6 0.01-19.63-16.13-35.61-35.96-35.61zm-1.72 50.22c-0.35 0.03-0.7 0.06-1.06 0.06h-17.45c-0.05 0-0.09-0.04-0.14-0.06-0.09-0.02-0.17-0.04-0.24-0.1-0.12-0.11-0.21-0.25-0.21-0.43v-28.17c0-0.18 0.09-0.32 0.21-0.43 0.06-0.06 0.14-0.07 0.22-0.09 0.06-0.02 0.09-0.06 0.15-0.06h17.45c0.4 0 0.8 0.03 1.19 0.06 7.25 0.63 12.97 6.94 12.97 14.61 0.01 7.71-5.77 14.05-13.09 14.61z" fill="#40C0E7"/>
</svg>

<svg viewBox="0 0 128 128" xmlns="http://www.w3.org/2000/svg">
  <defs/>
  <path d="M72.51,15.42 L34.65,15.42 C34.5,15.42 34.37,15.48 34.23,15.5 L27.76,15.5 C26.52,15.5 25.52,16.5 25.52,17.74 L25.52,118.71 C25.52,119.95 26.52,120.95 27.76,120.95 L49.66,120.95 C50.9,120.95 51.9,119.95 51.9,118.71 L51.9,86.63 L72.51,86.63 C92.34,86.63 108.47,70.66 108.47,51.03 C108.48,31.4 92.34,15.42 72.51,15.42 Z M70.79,65.64 C70.44,65.67 70.09,65.7 69.73,65.7 L52.28,65.7 C52.23,65.7 52.19,65.66 52.14,65.64 C52.05,65.62 51.97,65.6 51.9,65.54 C51.78,65.43 51.69,65.29 51.69,65.11 L51.69,36.94 C51.69,36.76 51.78,36.62 51.9,36.51 C51.96,36.45 52.04,36.44 52.12,36.42 C52.18,36.4 52.21,36.36 52.27,36.36 L69.72,36.36 C70.12,36.36 70.52,36.39 70.91,36.42 C78.16,37.05 83.88,43.36 83.88,51.03 C83.89,58.74 78.11,65.08 70.79,65.64 Z" fill="#40C0E7"/>
</svg>
